X:426
T:72nd Highlander's Farewell To Edinburgh, The
C:Joe Buchanan's Scottish Tome - Page 389.0
I:389 0
Z:Carl Allison
C:AKA 74th Highlander's Farewell To Edinburgh, The
C:Vic MacKinna
R:March
L:1/8
M:2/4
K:A
A/>B/ | ce/>a/ f/>A/f/<a/ | e>c Ac/<e/ | f/>A/f/<a/ e/>A/c/>a/ | BB/>c/ BA/>B/ |
ce/<a/ f/>A/f/<a/ | e>c Ac/<e/ | f/>A/f/<a/ e/<c/d/<B/ | cA A :|
f/>g/ | a/>e/c/<A/ c/<e/c/<A/ | a/>A/f/<a/ ef/>g/ | a/<e/c/>A/ f/<a/e/>c/ | fB Bf/>g/ |
a/>e/c/<A/ c/<e/c/<A/ | a/>A/f/<a/ ef/>g/ | a/>f/g/>e/ f/>d/e/>d/ | cA A :|
A/>B/ | cc/<e/ A/>c/e/>A/ | fe eA/>B/ | cc/>e/ A/>c/e/>A/ | cB BA/B/ |
cc/>e/ A/>c/e/>A/ | fe eA/>B/ | c/<e/a/>e/ f/>d/e/>d/ | cA A :|
A/>B/ | c/>c/c/<e/ A/>c/e/>A/ | fe eA/B/ | c/<e/e/>c/ A/>c/e/>A/ | cB BA/>B/ |
c/<e/c/>B/ A/>c/e/>A/ | fe eA/>B/ | c/<e/a/>e/ f/>d/e/>d/ | cA A :|
f/>g/ | a/>e/f/>d/ c/<A/c/<e/ | a/>e/c/<A/ fe/>f/ | ae/f/d/ c/<A/c/<e/ | f/<a/e/>c/ Bf/>g/ |
a/>e/f/>d/ c/<A/c/<e/ | a/>e/c/<A/ fe/>f/ | e/>f/a/>e/ f/<a/e/>d/ | cA A :|
